X:1
T:Title
%%score { 1 | 2 }
L:1/8
M:4/4
K:F
V:1 treble nm="Grand Piano"
V:2 bass 
V:1
 z4 z2[Q:1/4=100] F2 | A<A A>A AG F>A | c2 d2 c2 A2 | [EG]<[EG] [EG]>[EG] [EG][FA] [GB]>[FA] | %4
 [EG]6 FG | A2 A2 A>G F>A | c2 d2 c2 AA | [EG]2 [EG]2 [Ec]2 E2 |[M:3/4] F6 |[M:1/4] c2 | %10
[M:4/4] [Fd]<[Fd] [Fd]>[Fd] [Fd]2 [FB]2 | c<c c>c c2 A2 | G<G G>G GG A>=B | [Ec]6 [Gc][GB] | %14
 A2 A2 AAGA | [DFB]2 [DFB]2 [DFB][DFB][CFc][Fd] | [Fc]2 [FA]2 [EA]2 [EG]2 |[M:3/4] F6 |] %18
V:2
 z4 z2 [F,A,C]2 | [F,CF]<[F,CF] [F,CF]>[F,CF] [F,CF][F,B,C] [F,A,C]>[F,CF] | %2
 [F,A,F]2 [F,B,F]2 [F,A,F]2 [F,CF]2 | [C,C]<[C,C] [C,C]>[C,C] [C,C][C,C] [C,C]>[C,C] | %4
 [C,C]6 [F,A,][F,B,F] | [F,CF]2 [F,CF]2 [F,CF]>[F,B,C] [F,A,C]>[F,CF] | %6
 [F,A,F]2 [F,B,F]2 [F,A,F]2 [F,CF][F,CF] | [C,C]2 [C,C]2 [C,G,]2 [C,B,C]2 |[M:3/4] [F,A,C]6 | %9
[M:1/4] [F,A,F]2 |[M:4/4] [B,,B,]<[B,,B,] [B,,B,]>[B,,B,] [B,,B,]2 [D,B,]2 | %11
 [F,A,F]<[F,A,F] [F,A,F]>[F,A,F] [F,A,F]2 [F,CF]2 | %12
 [G,CE]<[G,CE] [G,CE]>[G,CE] [G,=B,F][G,B,F] [G,CF]>[G,DF] | [C,C]6 [E,C][E,C] | %14
 [F,CF]2 [F,CF]2 [F,CF][F,CF][F,B,F][F,CF] | B,,2 B,,2 B,,B,,A,,[B,,B,] | %16
 [C,A,]2 [C,C]2 [C,C]2 [C,B,]2 |[M:3/4] [F,A,]6 |] %18

